X: 128
T: The Banks of Banna
N:"Moderate"
B:O'Neill's 128
Z:Transcribed by henrik.norbeck@mailbox.swipnet.se
M:C
L:1/8
K:C
(c3 d e2) (ed)|c2 G2 G4|(A2 G2) c2 (B{d}c)|(B2 A2) G4|
c3 c (ce)(eg)|(G3 A) (AGFE)|(FGAB) (cd)(cF)|E2 D2 C4||
(E3 D) (E2 F2)|(G2 {B}A>G) G4|(A2 G2) c2 (B{d}c)|(B2 A2) G4|
c2 c2 (ce)(eg)|(G3 A) (AGFE)|(FGAB) (cd)(cF)|E2 D2 C4||


